X: 169
T: Filipovsko Horo
B: incoming
M:2/4
L:1/8
Q: 1/4=100
K:Bb
V:1 
%%MIDI program 0
V:2 
%%MIDI program 0
V:V:1 
 fg fg|fg (3gfe|ef ef|\
ef (3fed|de ef|(3ffe (3eed|d2z2|
ef (3fed|de ef|(3ffe (3eed|d2z2|\
de ef |(3ffd (3eed|d2 d2|
fg fg|fg (3gfe|ef ef|\
ef (3fed|de ef|(3ffd (3ffd|
d2 z2|de ef|(3ffe (3eed|\
d2 d2|:g3 a|(3ffe (3ede|(3ffe (3eed|
(3dde f2|g3 a|(3ffe (3ede|\
(3ffe (3eed|[1d2 d2:|[2d2 d2:|
V:V:2 
 de de|de (3edc|cd cd|\
cd (3dcB|Bc cd|(3ddc (3cBF|B2 z2|
cd (3dcB|Bc cd|(3ddc (3cBF|B2 z2|\
Bc cd |(3ddc (3cBF|(3BBF (3BBB|
de de|de (3edc|cd cd|\
cd (3dcB|Bc cd|(3ddc (3cBF|
B2 z2|Bc cd|(3ddc (3ccB|\
B2 B2|:e3 f|(3ddc (3cBc|(3ddc (3cBF|
(3BBc (3ddB|e3 f|(3ddc (3cBc|\
(3ddc (3cBF|[1(3BBF (3BBF:|[2B2 B2:|
% abcbook-tune_id 63cb082f217fe3ac02697f8f
% abcbook-tune_composer_id 
% abcbook-boost 0
% abcbook-difficulty 0
% abcbook-tags balkan dances
% abcbook-tablature 
% abcbook-transpose 
% abcbook-tuning 
% abcbook-lastupdated 1674250287865
% abcbook-soundfonts 
% abcbook-repeats 1


